X:1
T:Vivaldi - Prélude (RV 64)
T:Prélude 
T:Antonio Vivaldi (1678-1741)
T:de la Sonate en trio Op. 1 n°8 (RV 64)
T:Creative Commons copyright waiver
T:Creative Commons copyright waiver
C:Antonio Vivaldi
Z:Creative Commons copyright waiver
%%score [ 1 ( 2 3 ) ]
L:1/8
Q:1/4=60
M:4/4
K:F
V:1 treble-8 nm="Guitare 1"
V:2 treble-8 nm="Guitare 2"
V:3 treble-8 
V:1
 (d/A/F/A/) (D/F/A/d/) (_d/A/E/_D/) (A,/e/a/g/) | (f/d/A/F/) (D/A/d'/c'/) (b/a/g/f/) (e/d'/c'/b/) | %2
 (a/b/c'/e/) (f/c/d/B/) (A/c/f/A/) (G/c/f/e/) | (f/c/A/G/) (F/f/a/g/) (^f/d/c/_e/) (e/A/D/c/) | %4
 (B/G/B/d/) (g/d/g/d/) (=b/e/d/b/) (b/e/d/^g/) | (a/e/c/=B/) (A/e/d/c/) (f/d/c/B/) (^g/e/d/c/) | %6
 (a/f/e/d/) (=b/^g/^f/e/) (c'/g/a/c/) (E/=B/a/^g/) | (a/e/d/A/) (c/A/E/C/) A,4 :: %8
 (a/e/^c/=B/) (A/e/a/g/) (f/d/A/F/) (D/A/d/=c/) | (B/G/D/B,/) (G,/D/G/F/) (E/A/E/^C/) (A,/E/A/G/) | %10
 (F/D/F/A/) (B/A/F/B/) (_e/c/A/^F/) (d/A/F/D/) | (B/G/B/d/) (g/d/=B/g/) (_a/f/d/B/) (g/d/B/G/) | %12
 (_e/c/G/_E/) (C/E/G/c/) (=e/c/B/e/) (g/e/B/g/) | %13
 (b/e/)(f/c/) (^c/_A/)(B/F/) (G/F/E/D/) (C/B,/_A,/G,/) | %14
 (B,/C/F/_A/) (C/F/A/c/) (F/A/c/f/) (G/c/f/e/) | (f/e/)(a/f/) (c/f/)(a/f/) (e/^c/A/c/) (e/g/c/A/) | %16
 (d/A/F/E/) (D/A/G/F/) (B/G/F/E/) (^c/A/G/F/) | %17
 (d/B/A/G/) (e/^c/=B/A/) (f/c/)(d/F/) (A,/E/)(d/c/) | %18
 (d/A/F/E/) (D/A/G/F/) (B/G/F/E/) (^c/A/G/F/) | %19
 (d/B/A/G/) (e/^c/=B/A/) (f/^c/)(d/F/) (A,/E/)(d/^c/) | (d/A/F/D/) (A/F/D/A,/) D4 :| %21
V:2
 FFFF EEee | AAaa ddgg | cccF FFEc | A2 z2 AAAA | D2 z2 dddd | c2 z e A=BBe | eddd dc/d/ =B2 | %7
 AAAA A4 :: ^ccee AAAA | DBBB ^ccEE | A2 z2 AAAA | D2 z2 dddd | GGGG GGEE | FFFF EEGG | %14
 CCFF ^ccGG | F2 z2 ^ccce | A2 z A DEEA | AGGG GF/G/ E2 | D2 z A DEEA | AGGG GF/G/ E2 | DDDD D4 :| %21
V:3
 D,2 D,2 A,2 ^C2 | D,2 F,2 G,2 C2 | F,2 A,2 C2 C2 | F,2 x2 D,2 ^F,2 | G,2 x2 ^G,2 E,2 | %5
 A,2 x C D,2 E,2 | F,2 ^G,2 A,2 E,2 | A,2 A,2 A,4 :: A,2 ^C2 D,2 ^F,2 | G,2 G,2 A,2 A,2 | %10
 D,2 x2 ^F,2 F,2 | G,2 x2 =B,2 B,2 | C2 C2 B,2 B,2 | _A,2 B,2 C2 E,2 | F,2 _A,2 B,2 C2 | %15
 F,2 x2 A,2 G,2 | F,2 z2 G,2 A,2 | B,2 ^C2 D2 A,2 | B,2 z2 G,2 A,2 | B,2 ^C2 D,2 A,2 | %20
 D,2 D,2 D,4 :| %21

